icons/youtube.svg

<svg xmlns="http://www.w3.org/2000/svg" x="0px" y="0px" width="100" height="100" viewBox="0 0 50 50">
<path d="M 44.898438 14.5 C 44.5 12.300781 42.601563 10.699219 40.398438 10.199219 C 37.101563 9.5 31 9 24.398438 9 C 17.800781 9 11.601563 9.5 8.300781 10.199219 C 6.101563 10.699219 4.199219 12.199219 3.800781 14.5 C 3.398438 17 3 20.5 3 25 C 3 29.5 3.398438 33 3.898438 35.5 C 4.300781 37.699219 6.199219 39.300781 8.398438 39.800781 C 11.898438 40.5 17.898438 41 24.5 41 C 31.101563 41 37.101563 40.5 40.601563 39.800781 C 42.800781 39.300781 44.699219 37.800781 45.101563 35.5 C 45.5 33 46 29.398438 46.101563 25 C 45.898438 20.5 45.398438 17 44.898438 14.5 Z M 19 32 L 19 18 L 31.199219 25 Z" fill="#E0E2DB"></path>
</svg>

<svg xmlns="http://www.w3.org/2000/svg" width="100" height="100" x="0px" y="0px" viewBox="0 0 50 50"><path fill="#E0E2DB" d="M44.898 14.5c-.398-2.2-2.296-3.8-4.5-4.3C37.102 9.5 31 9 24.398 9c-6.597 0-12.796.5-16.097 1.2-2.2.5-4.102 2-4.5 4.3C3.398 17 3 20.5 3 25s.398 8 .898 10.5c.403 2.2 2.301 3.8 4.5 4.3 3.5.7 9.5 1.2 16.102 1.2s12.602-.5 16.102-1.2c2.199-.5 4.097-2 4.5-4.3.398-2.5.898-6.102 1-10.5-.204-4.5-.704-8-1.204-10.5ZM19 32V18l12.2 7Z"/></svg>
